X:550
T:Wee Morag
C:Nigel Gatherer
Z:Nigel Gatherer
M:4/4
L:1/8
K:Bm
z | B2 dB cA A2 | Bcde fa/f/ ec | B2 dB cA A2 | fdec B3  :|
c | d2 fd adfd  | (3cBA eA fAeA | d2 fd adfd  | Bdcd B3 c |
    d2 fd adfd  | (3cBA eA fAeA | B2 dB cA A2 | fdec B3  |]
